X: 25
T:The Horse's Bransle
M:4/4
L:1/4
C:Trad
K:G
|: G>A BB|cBAc|BAGF| E2D2|G>A BB|cBAc|BGAF|G2 G2:|
|:d c/2B/2 AB|c B/2A/2 GB|AGFG|A>B A2|
|d c/2B/2 AB| c B/2A/2 GB|AGGF G2 G2 :|
|:_B A/2G/2 _B A/2G/2| FG A2|DEFG| A_B A2 | 
|_B A/2G/2 _B A/2G/2| FG A2|DEFG| GF G2 :|
